src/lib/packages/icons/src/assets/filled/print-slash.svg

<svg width="24" height="24" viewBox="0 0 24 24" fill="none" xmlns="http://www.w3.org/2000/svg">
<path d="M20.4619 7.99709C20.8209 8.48509 21 9.15302 21 10V15.5C21 16.328 20.328 17 19.5 17H17.75V20C17.75 20.962 16.962 21.75 16 21.75H8.00002C7.66702 21.75 7.35397 21.6611 7.07497 21.4861C6.96897 21.4201 6.80901 21.211 7.01101 21.01L7.64211 20.3589C7.76511 20.2359 7.81802 20.251 8.00002 20.251H16C16.138 20.251 16.25 20.139 16.25 20.001V15.751H12.949C12.725 15.751 12.5431 15.458 12.7591 15.242L20.0191 7.98196C20.1441 7.85596 20.3579 7.85609 20.4619 7.99709ZM21.5301 3.53005L3.53005 21.5301C3.38405 21.6761 3.19202 21.75 3.00002 21.75C2.80802 21.75 2.61599 21.6771 2.46999 21.5301C2.17699 21.2371 2.17699 20.762 2.46999 20.469L5.93996 16.999H4.501C3.671 16.999 3.001 16.329 3.001 15.499V9.99905C3.001 7.99905 4.001 6.99905 6.001 6.99905H6.251V3.99905C6.251 3.03405 7.036 2.24905 8.001 2.24905H15.001C15.2 2.24905 15.391 2.32802 15.531 2.46902L17.531 4.46902C17.672 4.61002 17.751 4.80105 17.751 4.99905V5.18801L20.471 2.46804C20.764 2.17504 21.239 2.17504 21.532 2.46804C21.825 2.76104 21.8231 3.23705 21.5301 3.53005ZM16.25 5.31106L14.689 3.75002H8.00002C7.86202 3.75002 7.75002 3.86202 7.75002 4.00002V7.00002H15.939L16.25 6.68899V5.31106Z" fill="currentColor"/>
</svg>

<svg xmlns="http://www.w3.org/2000/svg" width="24" height="24" fill="none"><path fill="currentColor" d="M20.462 7.997C20.82 8.485 21 9.153 21 10v5.5a1.5 1.5 0 0 1-1.5 1.5h-1.75v3c0 .962-.788 1.75-1.75 1.75H8c-.333 0-.646-.089-.925-.264-.106-.066-.266-.275-.064-.476l.631-.651c.123-.123.176-.108.358-.108h8a.25.25 0 0 0 .25-.25v-4.25h-3.301a.293.293 0 0 1-.19-.509l7.26-7.26c.125-.126.339-.126.443.015ZM21.53 3.53l-18 18a.748.748 0 0 1-1.06 0 .75.75 0 0 1 0-1.061l3.47-3.47H4.501c-.83 0-1.5-.67-1.5-1.5v-5.5c0-2 1-3 3-3h.25V4c0-.965.785-1.75 1.75-1.75h7c.199 0 .39.079.53.22l2 2a.75.75 0 0 1 .22.53v.189l2.72-2.72a.75.75 0 1 1 1.06 1.062Zm-5.28 1.781L14.689 3.75H8a.25.25 0 0 0-.25.25v3h8.189l.311-.311V5.311Z"/></svg>
